src/components/pages/careers/icons/clock.svg

<svg width="66" height="70" viewBox="0 0 66 70" fill="none" xmlns="http://www.w3.org/2000/svg">
<g filter="url(#filter0_dd_2978_21399)">
<mask id="path-1-outside-1_2978_21399" maskUnits="userSpaceOnUse" x="8.92773" y="4.74609" width="49" height="53" fill="black">
<rect fill="white" x="8.92773" y="4.74609" width="49" height="53"/>
<path fill-rule="evenodd" clip-rule="evenodd" d="M23.7059 11.039C24.0964 11.4295 24.0964 12.0627 23.7059 12.4532L16.6348 19.5243C16.2443 19.9148 15.6112 19.9148 15.2206 19.5243C14.8301 19.1337 14.8301 18.5006 15.2206 18.1101L22.2917 11.039C22.6822 10.6485 23.3154 10.6485 23.7059 11.039ZM32.997 17.7461C24.1604 17.7461 16.997 24.9095 16.997 33.7461C16.997 42.5826 24.1604 49.7461 32.997 49.7461C41.8336 49.7461 48.997 42.5826 48.997 33.7461C48.997 24.9095 41.8336 17.7461 32.997 17.7461ZM14.997 33.7461C14.997 23.805 23.0559 15.7461 32.997 15.7461C42.9381 15.7461 50.997 23.805 50.997 33.7461C50.997 43.6872 42.9381 51.7461 32.997 51.7461C23.0559 51.7461 14.997 43.6872 14.997 33.7461ZM42.29 12.4532C41.8995 12.0627 41.8995 11.4295 42.29 11.039C42.6806 10.6485 43.3137 10.6485 43.7043 11.039L50.7753 18.1101C51.1658 18.5006 51.1658 19.1337 50.7753 19.5243C50.3848 19.9148 49.7516 19.9148 49.3611 19.5243L42.29 12.4532Z"/>
</mask>
<path fill-rule="evenodd" clip-rule="evenodd" d="M23.7059 11.039C24.0964 11.4295 24.0964 12.0627 23.7059 12.4532L16.6348 19.5243C16.2443 19.9148 15.6112 19.9148 15.2206 19.5243C14.8301 19.1337 14.8301 18.5006 15.2206 18.1101L22.2917 11.039C22.6822 10.6485 23.3154 10.6485 23.7059 11.039ZM32.997 17.7461C24.1604 17.7461 16.997 24.9095 16.997 33.7461C16.997 42.5826 24.1604 49.7461 32.997 49.7461C41.8336 49.7461 48.997 42.5826 48.997 33.7461C48.997 24.9095 41.8336 17.7461 32.997 17.7461ZM14.997 33.7461C14.997 23.805 23.0559 15.7461 32.997 15.7461C42.9381 15.7461 50.997 23.805 50.997 33.7461C50.997 43.6872 42.9381 51.7461 32.997 51.7461C23.0559 51.7461 14.997 43.6872 14.997 33.7461ZM42.29 12.4532C41.8995 12.0627 41.8995 11.4295 42.29 11.039C42.6806 10.6485 43.3137 10.6485 43.7043 11.039L50.7753 18.1101C51.1658 18.5006 51.1658 19.1337 50.7753 19.5243C50.3848 19.9148 49.7516 19.9148 49.3611 19.5243L42.29 12.4532Z" fill="white"/>
<path d="M23.7059 12.4532L27.9485 16.6958L27.9486 16.6958L23.7059 12.4532ZM23.7059 11.039L27.9486 6.79635L27.9485 6.79634L23.7059 11.039ZM16.6348 19.5243L20.8775 23.7669L20.8775 23.7669L16.6348 19.5243ZM15.2206 19.5243L10.978 23.7669V23.7669L15.2206 19.5243ZM15.2206 18.1101L19.4633 22.3527L15.2206 18.1101ZM22.2917 11.039L18.0491 6.79635L18.0491 6.79635L22.2917 11.039ZM42.29 11.039L46.5327 15.2816L46.5327 15.2816L42.29 11.039ZM42.29 12.4532L46.5327 8.21056L46.5327 8.21055L42.29 12.4532ZM43.7043 11.039L39.4616 15.2816L39.4616 15.2816L43.7043 11.039ZM50.7753 18.1101L55.018 13.8674L55.018 13.8674L50.7753 18.1101ZM50.7753 19.5243L55.018 23.7669L55.018 23.7669L50.7753 19.5243ZM49.3611 19.5243L45.1185 23.7669L45.1185 23.7669L49.3611 19.5243ZM27.9486 16.6958C30.6822 13.9622 30.6822 9.53002 27.9486 6.79635L19.4633 15.2816C17.5106 13.329 17.5106 10.1632 19.4633 8.21056L27.9486 16.6958ZM20.8775 23.7669L27.9485 16.6958L19.4633 8.21056L12.3922 15.2816L20.8775 23.7669ZM10.978 23.7669C13.7117 26.5006 18.1438 26.5006 20.8775 23.7669L12.3922 15.2816C14.3448 13.329 17.5106 13.329 19.4633 15.2816L10.978 23.7669ZM10.978 13.8674C8.24432 16.6011 8.24431 21.0332 10.978 23.7669L19.4633 15.2816C21.4159 17.2343 21.4159 20.4001 19.4633 22.3527L10.978 13.8674ZM18.0491 6.79635L10.978 13.8674L19.4633 22.3527L26.5343 15.2816L18.0491 6.79635ZM27.9485 6.79634C25.2149 4.06268 20.7827 4.06267 18.0491 6.79635L26.5343 15.2816C24.5817 17.2343 21.4159 17.2342 19.4633 15.2816L27.9485 6.79634ZM22.997 33.7461C22.997 28.2232 27.4742 23.7461 32.997 23.7461V11.7461C20.8467 11.7461 10.997 21.5958 10.997 33.7461H22.997ZM32.997 43.7461C27.4742 43.7461 22.997 39.2689 22.997 33.7461H10.997C10.997 45.8964 20.8467 55.7461 32.997 55.7461V43.7461ZM42.997 33.7461C42.997 39.2689 38.5198 43.7461 32.997 43.7461V55.7461C45.1473 55.7461 54.997 45.8964 54.997 33.7461H42.997ZM32.997 23.7461C38.5198 23.7461 42.997 28.2232 42.997 33.7461H54.997C54.997 21.5958 45.1473 11.7461 32.997 11.7461V23.7461ZM32.997 9.74609C19.7422 9.74609 8.997 20.4913 8.997 33.7461H20.997C20.997 27.1187 26.3696 21.7461 32.997 21.7461V9.74609ZM56.997 33.7461C56.997 20.4913 46.2518 9.74609 32.997 9.74609V21.7461C39.6244 21.7461 44.997 27.1187 44.997 33.7461H56.997ZM32.997 57.7461C46.2518 57.7461 56.997 47.0009 56.997 33.7461H44.997C44.997 40.3735 39.6244 45.7461 32.997 45.7461V57.7461ZM8.997 33.7461C8.997 47.0009 19.7422 57.7461 32.997 57.7461V45.7461C26.3696 45.7461 20.997 40.3735 20.997 33.7461H8.997ZM38.0474 6.79634C35.3137 9.53001 35.3137 13.9622 38.0474 16.6958L46.5327 8.21055C48.4853 10.1632 48.4853 13.329 46.5327 15.2816L38.0474 6.79634ZM47.9469 6.79635C45.2132 4.06268 40.7811 4.06268 38.0474 6.79635L46.5327 15.2816C44.5801 17.2342 41.4142 17.2342 39.4616 15.2816L47.9469 6.79635ZM55.018 13.8674L47.9469 6.79635L39.4616 15.2816L46.5327 22.3527L55.018 13.8674ZM55.018 23.7669C57.7516 21.0332 57.7516 16.6011 55.018 13.8674L46.5327 22.3527C44.5801 20.4001 44.5801 17.2343 46.5327 15.2816L55.018 23.7669ZM45.1185 23.7669C47.8521 26.5006 52.2843 26.5006 55.018 23.7669L46.5327 15.2816C48.4853 13.329 51.6511 13.329 53.6037 15.2816L45.1185 23.7669ZM38.0474 16.6958L45.1185 23.7669L53.6038 15.2816L46.5327 8.21056L38.0474 16.6958Z" fill="white" mask="url(#path-1-outside-1_2978_21399)"/>
<circle cx="32.998" cy="33.7461" r="17" fill="white" stroke="#171717" stroke-width="2"/>
<path d="M22.998 11.7461L15.927 18.8172" stroke="#171717" stroke-width="2" stroke-linecap="round"/>
<path d="M42.998 11.7461L50.0691 18.8172" stroke="#171717" stroke-width="2" stroke-linecap="round"/>
<path d="M32.998 23.7461V33.7461H42.998" stroke="black" stroke-width="2" stroke-linecap="round" stroke-linejoin="round"/>
<path d="M19.7507 43.899C19.7254 43.6711 19.426 43.4723 19.3203 43.2685C19.1012 42.8458 18.8659 42.4319 18.6498 42.0074C18.29 41.3008 18.0138 40.5552 17.6589 39.8456C16.947 38.4217 16.508 36.8591 16.508 35.2517C16.508 33.5476 16.4099 31.8105 16.598 30.1173C16.8234 28.089 17.6571 26.0001 18.7599 24.2824C19.9773 22.386 21.3717 20.7805 23.1736 19.3983C24.9487 18.0365 26.7962 16.387 28.9385 15.6601C31.1721 14.9023 33.3299 15.1554 35.6041 15.6151C36.9096 15.8789 38.11 16.3565 39.3273 16.8761C40.7203 17.4707 42.1183 18.0586 43.4057 18.8678C46.2693 20.6678 47.2936 23.8881 48.3499 26.9096C49.377 29.8475 49.656 32.7629 49.656 35.8622C49.656 37.0143 49.2332 38.0767 48.8654 39.155C48.4672 40.3221 47.848 41.4987 47.274 42.5879C46.6076 43.8523 45.3496 44.9367 44.3415 45.9307C43.3541 46.9044 42.1483 47.8114 40.8886 48.3928C38.9366 49.2937 37.0277 50.0102 34.9336 50.5196C33.8517 50.7828 32.789 50.8349 31.6808 50.8349C30.5169 50.8349 29.4832 50.8743 28.378 50.4746C27.2262 50.0579 26.1091 49.4055 25.0152 48.8532C24.0895 48.3859 23.3137 47.8223 22.5831 47.0917C22.0921 46.6007 21.5581 45.9804 21.1919 45.3853C20.96 45.0084 20.5235 44.7761 20.3812 44.3494" stroke="#171717" stroke-width="2" stroke-linecap="round"/>
<path d="M15.2383 19.0444C16.1064 18.0798 17.0346 17.1819 17.952 16.2644C18.415 15.8014 18.8764 15.3401 19.3383 14.8781C19.5789 14.6376 20.061 14.4317 20.2025 14.1133C20.4498 13.5568 20.759 13.1043 21.2247 12.7233C21.4191 12.5643 21.6056 12.3797 21.8572 12.3078C22.1273 12.2306 22.4163 12.1851 22.6515 12.0283" stroke="#171717" stroke-width="2" stroke-linecap="round"/>
<path d="M42.1113 11.3008C42.2599 11.3338 42.4636 11.6309 42.571 11.7347C42.8269 11.9821 43.0865 12.3046 43.2991 12.5915C43.6959 13.1272 44.1853 13.5894 44.5603 14.1469C44.6978 14.3513 44.8133 14.5822 44.9648 14.7757C45.2062 15.0842 45.6159 15.2994 45.9209 15.5406C46.4778 15.981 47.1276 16.46 47.6014 16.9931C48.0739 17.5247 48.6393 17.8771 49.2267 18.2838C49.5837 18.5309 49.9499 18.8605 50.3188 19.0449" stroke="#171717" stroke-width="2" stroke-linecap="round"/>
<path d="M32.9362 23.2441C32.9362 24.3674 32.9227 25.4915 32.9362 26.6147C32.9497 27.7296 33.3238 28.8832 33.1645 29.9987C33.044 30.8419 32.7899 31.6512 32.6475 32.4896C32.6149 32.6818 32.3293 33.3961 32.6676 33.3961C33.583 33.3961 34.4984 33.3961 35.4138 33.3961C35.9375 33.3961 36.4612 33.3961 36.9849 33.3961C37.5211 33.3961 38.0476 33.2752 38.5829 33.2752C39.5095 33.2752 40.436 33.2752 41.3626 33.2752C41.8019 33.2752 42.1908 33.3362 42.6249 33.3961C42.8435 33.4262 43.0528 33.5774 43.2694 33.5774" stroke="#171717" stroke-width="2" stroke-linecap="round"/>
</g>
<defs>
<filter id="filter0_dd_2978_21399" x="0.927734" y="0.746094" width="64.1406" height="69" filterUnits="userSpaceOnUse" color-interpolation-filters="sRGB">
<feFlood flood-opacity="0" result="BackgroundImageFix"/>
<feColorMatrix in="SourceAlpha" type="matrix" values="0 0 0 0 0 0 0 0 0 0 0 0 0 0 0 0 0 0 127 0" result="hardAlpha"/>
<feOffset dy="2"/>
<feGaussianBlur stdDeviation="1"/>
<feComposite in2="hardAlpha" operator="out"/>
<feColorMatrix type="matrix" values="0 0 0 0 0 0 0 0 0 0 0 0 0 0 0 0 0 0 0.02 0"/>
<feBlend mode="normal" in2="BackgroundImageFix" result="effect1_dropShadow_2978_21399"/>
<feColorMatrix in="SourceAlpha" type="matrix" values="0 0 0 0 0 0 0 0 0 0 0 0 0 0 0 0 0 0 127 0" result="hardAlpha"/>
<feOffset dy="4"/>
<feGaussianBlur stdDeviation="4"/>
<feComposite in2="hardAlpha" operator="out"/>
<feColorMatrix type="matrix" values="0 0 0 0 0 0 0 0 0 0 0 0 0 0 0 0 0 0 0.06 0"/>
<feBlend mode="normal" in2="effect1_dropShadow_2978_21399" result="effect2_dropShadow_2978_21399"/>
<feBlend mode="normal" in="SourceGraphic" in2="effect2_dropShadow_2978_21399" result="shape"/>
</filter>
</defs>
</svg>

<svg xmlns="http://www.w3.org/2000/svg" width="66" height="70" fill="none"><g filter="url(#a)"><mask id="b" width="49" height="53" x="8.928" y="4.746" fill="#000" maskUnits="userSpaceOnUse"><path fill="#fff" d="M8.928 4.746h49v53h-49z"/><path fill-rule="evenodd" d="M23.706 11.039a1 1 0 0 1 0 1.414l-7.071 7.071a1 1 0 0 1-1.414-1.414l7.07-7.071a1 1 0 0 1 1.415 0Zm9.291 6.707c-8.837 0-16 7.164-16 16 0 8.837 7.163 16 16 16s16-7.163 16-16-7.163-16-16-16Zm-18 16c0-9.941 8.059-18 18-18s18 8.059 18 18-8.059 18-18 18-18-8.059-18-18ZM42.29 12.453a1 1 0 0 1 1.414-1.414l7.071 7.071a1 1 0 0 1-1.414 1.414l-7.071-7.07Z" clip-rule="evenodd"/></mask><path fill="#fff" fill-rule="evenodd" d="M23.706 11.039a1 1 0 0 1 0 1.414l-7.071 7.071a1 1 0 0 1-1.414-1.414l7.07-7.071a1 1 0 0 1 1.415 0Zm9.291 6.707c-8.837 0-16 7.164-16 16 0 8.837 7.163 16 16 16s16-7.163 16-16-7.163-16-16-16Zm-18 16c0-9.941 8.059-18 18-18s18 8.059 18 18-8.059 18-18 18-18-8.059-18-18ZM42.29 12.453a1 1 0 0 1 1.414-1.414l7.071 7.071a1 1 0 0 1-1.414 1.414l-7.071-7.07Z" clip-rule="evenodd"/><path fill="#fff" d="m23.706 12.453 4.242 4.243-4.242-4.243Zm0-1.414 4.243-4.243-4.243 4.243Zm-7.071 8.485 4.242 4.243-4.242-4.243Zm-1.414 0-4.243 4.243 4.243-4.243Zm0-1.414 4.242 4.243-4.242-4.243Zm7.07-7.071L18.05 6.796l4.243 4.243Zm19.999 0 4.243 4.243-4.243-4.243Zm0 1.414 4.243-4.242-4.243 4.242Zm1.414-1.414-4.242 4.243 4.242-4.243Zm7.071 7.071 4.243-4.243-4.243 4.243Zm0 1.414 4.243 4.243-4.243-4.243Zm-1.414 0-4.242 4.243 4.242-4.243ZM27.95 16.696a7 7 0 0 0 0-9.9l-8.486 8.486a5 5 0 0 1 0-7.071l8.486 8.485Zm-7.072 7.07 7.072-7.07-8.486-8.485-7.07 7.07 8.485 8.486Zm-9.899 0a7 7 0 0 0 9.9 0l-8.486-8.484a5 5 0 0 1 7.071 0l-8.485 8.485Zm0-9.899a7 7 0 0 0 0 9.9l8.485-8.485a5 5 0 0 1 0 7.07l-8.485-8.485Zm7.071-7.07-7.071 7.07 8.485 8.486 7.071-7.071-8.485-8.486Zm9.9 0a7 7 0 0 0-9.9 0l8.485 8.485a5 5 0 0 1-7.07 0l8.485-8.486Zm-4.952 26.95c0-5.524 4.477-10 10-10v-12c-12.15 0-22 9.849-22 22h12Zm10 10c-5.523 0-10-4.478-10-10h-12c0 12.15 9.85 22 22 22v-12Zm10-10c0 5.522-4.477 10-10 10v12c12.15 0 22-9.85 22-22h-12Zm-10-10c5.523 0 10 4.476 10 10h12c0-12.151-9.85-22-22-22v12Zm0-14c-13.255 0-24 10.744-24 24h12c0-6.628 5.373-12 12-12v-12Zm24 24c0-13.256-10.745-24-24-24v12c6.627 0 12 5.372 12 12h12Zm-24 24c13.255 0 24-10.746 24-24h-12c0 6.627-5.373 12-12 12v12Zm-24-24c0 13.254 10.745 24 24 24v-12c-6.627 0-12-5.373-12-12h-12Zm29.05-26.95a7 7 0 0 0 0 9.899l8.486-8.485a5 5 0 0 1 0 7.07l-8.486-8.485Zm9.9 0a7 7 0 0 0-9.9 0l8.486 8.485a5 5 0 0 1-7.071 0l8.485-8.486Zm7.071 7.07-7.071-7.07-8.485 8.485 7.07 7.07 8.486-8.485Zm0 9.9a7 7 0 0 0 0-9.9l-8.485 8.486a5 5 0 0 1 0-7.071l8.485 8.485Zm-9.9 0a7 7 0 0 0 9.9 0l-8.485-8.485a5 5 0 0 1 7.07 0l-8.485 8.485Zm-7.07-7.071 7.07 7.07 8.486-8.484-7.071-7.071-8.486 8.485Z" mask="url(#b)"/><circle cx="32.998" cy="33.746" r="17" fill="#fff" stroke="#171717" stroke-width="2"/><path stroke="#171717" stroke-linecap="round" stroke-width="2" d="m22.998 11.746-7.071 7.071M42.998 11.746l7.071 7.071"/><path stroke="#000" stroke-linecap="round" stroke-linejoin="round" stroke-width="2" d="M32.998 23.746v10h10"/><path stroke="#171717" stroke-linecap="round" stroke-width="2" d="M19.75 43.899c-.025-.228-.324-.427-.43-.63-.219-.423-.454-.837-.67-1.262-.36-.706-.636-1.452-.991-2.161-.712-1.424-1.151-2.987-1.151-4.594 0-1.704-.098-3.442.09-5.135.225-2.028 1.06-4.117 2.162-5.835 1.217-1.896 2.612-3.502 4.414-4.884 1.775-1.361 3.622-3.011 5.765-3.738 2.233-.758 4.39-.505 6.665-.045 1.306.264 2.506.742 3.723 1.261 1.393.595 2.791 1.183 4.079 1.992 2.863 1.8 3.888 5.02 4.944 8.042 1.027 2.938 1.306 5.853 1.306 8.952 0 1.152-.423 2.215-.79 3.293-.399 1.167-1.018 2.344-1.592 3.433-.666 1.264-1.924 2.349-2.932 3.343-.988.973-2.194 1.88-3.453 2.462-1.952.9-3.861 1.617-5.955 2.127-1.082.263-2.145.315-3.253.315-1.164 0-2.198.04-3.303-.36-1.152-.417-2.269-1.07-3.363-1.622a9.235 9.235 0 0 1-2.432-1.761c-.49-.491-1.025-1.112-1.391-1.707-.232-.377-.669-.609-.81-1.036M15.238 19.044c.868-.964 1.797-1.862 2.714-2.78l1.386-1.386c.24-.24.723-.446.864-.765.248-.556.557-1.009 1.023-1.39.194-.159.38-.343.632-.415.27-.077.56-.123.794-.28M42.111 11.3c.149.034.353.33.46.435.256.247.516.57.728.857.397.535.886.997 1.261 1.555.138.204.253.435.405.629.241.308.65.523.956.765.557.44 1.207.919 1.68 1.452.473.532 1.038.884 1.626 1.29.357.248.723.577 1.092.762"/><path stroke="#171717" stroke-linecap="round" stroke-width="2" d="M32.936 23.244c0 1.123-.013 2.247 0 3.37.014 1.116.388 2.27.228 3.385-.12.843-.374 1.652-.517 2.49-.032.193-.318.907.02.907h4.317c.537 0 1.064-.12 1.599-.12h2.78c.439 0 .828.06 1.262.12.218.03.428.181.644.181"/></g><defs><filter id="a" width="64.141" height="69" x=".928" y=".746" color-interpolation-filters="sRGB" filterUnits="userSpaceOnUse"><feFlood flood-opacity="0" result="BackgroundImageFix"/><feColorMatrix in="SourceAlpha" result="hardAlpha" values="0 0 0 0 0 0 0 0 0 0 0 0 0 0 0 0 0 0 127 0"/><feOffset dy="2"/><feGaussianBlur stdDeviation="1"/><feComposite in2="hardAlpha" operator="out"/><feColorMatrix values="0 0 0 0 0 0 0 0 0 0 0 0 0 0 0 0 0 0 0.02 0"/><feBlend in2="BackgroundImageFix" result="effect1_dropShadow_2974_21104"/><feColorMatrix in="SourceAlpha" result="hardAlpha" values="0 0 0 0 0 0 0 0 0 0 0 0 0 0 0 0 0 0 127 0"/><feOffset dy="4"/><feGaussianBlur stdDeviation="4"/><feComposite in2="hardAlpha" operator="out"/><feColorMatrix values="0 0 0 0 0 0 0 0 0 0 0 0 0 0 0 0 0 0 0.06 0"/><feBlend in2="effect1_dropShadow_2974_21104" result="effect2_dropShadow_2974_21104"/><feBlend in="SourceGraphic" in2="effect2_dropShadow_2974_21104" result="shape"/></filter></defs></svg>
